status/24/battery-empty-symbolic.svg

<?xml version="1.0" encoding="UTF-8" standalone="no"?>
<svg
   xmlns:dc="http://purl.org/dc/elements/1.1/"
   xmlns:cc="http://creativecommons.org/ns#"
   xmlns:rdf="http://www.w3.org/1999/02/22-rdf-syntax-ns#"
   xmlns:svg="http://www.w3.org/2000/svg"
   xmlns="http://www.w3.org/2000/svg"
   height="24"
   width="24"
   version="1.1"
   id="svg8">
  <metadata
     id="metadata14">
    <rdf:RDF>
      <cc:Work
         rdf:about="">
        <dc:format>image/svg+xml</dc:format>
        <dc:type
           rdf:resource="http://purl.org/dc/dcmitype/StillImage" />
        <dc:title></dc:title>
      </cc:Work>
    </rdf:RDF>
  </metadata>
  <defs
     id="defs12" />
  <path
     id="rect851"
     style="font-variation-settings:normal;opacity:1;vector-effect:none;fill:#c6262e;fill-opacity:1;stroke-width:0.999999;stroke-linecap:butt;stroke-linejoin:miter;stroke-miterlimit:4;stroke-dasharray:none;stroke-dashoffset:0;stroke-opacity:0.5;stop-color:#000000;stop-opacity:1"
     d="m 2.9995937,6 c -0.554,0 -1,2.453 -1,5.5 0,3.047 0.446,5.5 1,5.5 H 13.673828 l 0.566406,-1 H 3.6324062 C 3.2815783,16 2.9995937,13.993 2.9995937,11.5 2.9995937,9.007 3.2815783,7 3.6324062,7 H 20.367188 C 20.718015,7 21,9.007 21,11.5 c 0,1.932285 -0.170595,3.559101 -0.410156,4.199219 l 0.642578,1.134765 C 21.515278,16.450352 21.747309,15.395621 21.878906,14 h 1.619141 C 23.776155,14 24,12.885 24,11.5 24,10.115 23.776155,9 23.498047,9 H 21.878906 C 21.712678,7.2371104 21.387343,6 21,6 Z m 18.9457183,4 h 0.904297 C 22.932709,10 23,10.669 23,11.5 23,12.331 22.932709,13 22.849609,13 H 21.945312 C 21.970781,12.513456 22,12.032809 22,11.5 22,10.967191 21.970781,10.486544 21.945312,10 Z" />
  <path
     class="error"
     id="rect851-3-7-3"
     style="font-variation-settings:normal;opacity:0.25;vector-effect:none;fill:#c6262e;fill-opacity:1;stroke-width:0.999999;stroke-linecap:butt;stroke-linejoin:miter;stroke-miterlimit:4;stroke-dasharray:none;stroke-dashoffset:0;stroke-opacity:0.5;stop-color:#000000"
     d="m 4.3359687,8 c -0.1858151,0 -0.3359375,1.561 -0.3359375,3.5 0,1.939 0.1501224,3.5 0.3359375,3.5 H 14.806641 L 16.25,12.455078 c 6.48e-4,-0.0013 0.0013,-0.0026 0.002,-0.0039 0.245728,-0.426937 0.688694,-0.696749 1.179688,-0.720703 h 0.002 c 0.539741,-0.02493 1.047338,0.251918 1.316406,0.720703 6.57e-4,0.002 0.0013,0.0039 0.002,0.0059 l 1.091797,1.925781 C 19.935623,13.759488 20,12.73211 20,11.5 20,9.561 19.849878,8 19.664062,8 Z" />
  <path
     class="warning"
     color="#000000"
     d="m 17.480083,12.729 a 0.44,0.44 0 0 0 -0.36,0.22 l -3.061,5.397 a 0.437,0.437 0 0 0 0.379,0.654 h 6.125 a 0.437,0.437 0 0 0 0.379,-0.654 l -3.06,-5.397 a 0.439,0.439 0 0 0 -0.401,-0.22 z m -0.48,1.271 h 1 v 2 h -1 z m 0,3 h 1 v 1 h -1 z"
     fill="#f9c440"
     fill-rule="evenodd"
     font-family="sans-serif"
     font-weight="400"
     overflow="visible"
     style="line-height:normal;text-indent:0;text-align:start;text-decoration:none;text-decoration-line:none;text-decoration-style:solid;text-decoration-color:#000000;text-transform:none;isolation:auto;mix-blend-mode:normal"
     white-space="normal"
     id="path4" />
</svg>

<?xml version="1.0" encoding="UTF-8" standalone="no"?>
<svg
   xmlns:dc="http://purl.org/dc/elements/1.1/"
   xmlns:cc="http://creativecommons.org/ns#"
   xmlns:rdf="http://www.w3.org/1999/02/22-rdf-syntax-ns#"
   xmlns:svg="http://www.w3.org/2000/svg"
   xmlns="http://www.w3.org/2000/svg"
   height="24"
   width="24"
   version="1.1"
   id="svg8">
  <metadata
     id="metadata14">
    <rdf:RDF>
      <cc:Work
         rdf:about="">
        <dc:format>image/svg+xml</dc:format>
        <dc:type
           rdf:resource="http://purl.org/dc/dcmitype/StillImage" />
        <dc:title></dc:title>
      </cc:Work>
    </rdf:RDF>
  </metadata>
  <defs
     id="defs12" />
  <path
     id="rect851"
     style="font-variation-settings:normal;opacity:1;vector-effect:none;fill:#c6262e;fill-opacity:1;stroke-width:0.999999;stroke-linecap:butt;stroke-linejoin:miter;stroke-miterlimit:4;stroke-dasharray:none;stroke-dashoffset:0;stroke-opacity:0.5;stop-color:#000000;stop-opacity:1"
     d="M 2 6 C 1.446 6 1 8.453 1 11.5 C 1 14.547 1.446 17 2 17 L 13.673828 17 L 14.240234 16 L 2.6328125 16 C 2.2819845 16 2 13.993 2 11.5 C 2 9.007 2.2819845 7 2.6328125 7 L 20.367188 7 C 20.718015 7 21 9.007 21 11.5 C 21 13.432285 20.829405 15.059101 20.589844 15.699219 L 21.232422 16.833984 C 21.515278 16.450352 21.747309 15.395621 21.878906 14 L 23.498047 14 C 23.776155 14 24 12.885 24 11.5 C 24 10.115 23.776155 9 23.498047 9 L 21.878906 9 C 21.712678 7.2371104 21.387343 6 21 6 L 2 6 z M 21.945312 10 L 22.849609 10 C 22.932709 10 23 10.669 23 11.5 C 23 12.331 22.932709 13 22.849609 13 L 21.945312 13 C 21.970781 12.513456 22 12.032809 22 11.5 C 22 10.967191 21.970781 10.486544 21.945312 10 z " />
  <path
     class="error"
     id="rect851-3-7-3"
     style="font-variation-settings:normal;vector-effect:none;fill:#c6262e;fill-opacity:1;stroke-width:0.999999;stroke-linecap:butt;stroke-linejoin:miter;stroke-miterlimit:4;stroke-dasharray:none;stroke-dashoffset:0;stroke-opacity:0.5;stop-color:#000000;opacity:0.25"
     d="M 3.3359375 8 C 3.1501223 8 3 9.561 3 11.5 C 3 13.439 3.1501223 15 3.3359375 15 L 14.806641 15 L 16.25 12.455078 A 1.0001 1.0001 0 0 1 16.251953 12.451172 C 16.497681 12.024235 16.940647 11.754423 17.431641 11.730469 A 1.0001 1.0001 0 0 0 17.433594 11.730469 C 17.973335 11.705536 18.480932 11.982387 18.75 12.451172 A 1.0001 1.0001 0 0 1 18.751953 12.457031 L 19.84375 14.382812 C 19.935623 13.759488 20 12.73211 20 11.5 C 20 9.561 19.849878 8 19.664062 8 L 3.3359375 8 z " />
  <path
     class="warning"
     color="#000000"
     d="m 17.480083,12.729 a 0.44,0.44 0 0 0 -0.36,0.22 l -3.061,5.397 a 0.437,0.437 0 0 0 0.379,0.654 h 6.125 a 0.437,0.437 0 0 0 0.379,-0.654 l -3.06,-5.397 a 0.439,0.439 0 0 0 -0.401,-0.22 z m -0.48,1.271 h 1 v 2 h -1 z m 0,3 h 1 v 1 h -1 z"
     fill="#f9c440"
     fill-rule="evenodd"
     font-family="sans-serif"
     font-weight="400"
     overflow="visible"
     style="line-height:normal;text-indent:0;text-align:start;text-decoration:none;text-decoration-line:none;text-decoration-style:solid;text-decoration-color:#000000;text-transform:none;isolation:auto;mix-blend-mode:normal"
     white-space="normal"
     id="path4" />
</svg>
